;FLAVOR:Marlin
;TIME:26842
;Filament used: 20.7178m
;Layer height: 0.16
;MINX:8.49
;MINY:89.319
;MINZ:0.28
;MAXX:231.593
;MAXY:138.548
;MAXZ:63.48
;Generated with Cura_SteamEngine master
M140 S70
M105
M190 S70
M104 S250
M105
M109 S250
M82 ;absolute extrusion mode
; Ender 3 Custom Start G-code
G92 E0 ; Reset Extruder
G28 ; Home all axes
G1 Z2.0 F3000 ; Move Z Axis up little to prevent scratching of Heat Bed
G1 X0.1 Y20 Z0.3 F5000.0 ; Move to start position
G1 X0.1 Y200.0 Z0.3 F1500.0 E15 ; Draw the first line
G1 X0.4 Y200.0 Z0.3 F5000.0 ; Move to side a little
G1 X0.4 Y20 Z0.3 F1500.0 E30 ; Draw the second line
G92 E0 ; Reset Extruder
G1 Z2.0 F3000 ; Move Z Axis up little to prevent scratching of Heat Bed
G1 X5 Y20 Z0.3 F5000.0 ; Move over to prevent blob squish
G92 E0
G92 E0
G1 F2700 E-5
;LAYER_COUNT:396
;LAYER:0
M107
G0 F6000 X36.039 Y99.487 Z0.28
;TYPE:SKIRT
G1 F2700 E0
G1 F900 X36.8 Y99.217 E0.09024
G1 X37.585 Y99.025 E0.18055
G1 X38.385 Y98.911 E0.27086
G1 X39.136 Y98.876 E0.35488
G1 X56.663 Y98.876 E2.31359
G1 X57.47 Y98.916 E2.40389
G1 X58.269 Y99.036 E2.49418
G1 X59.052 Y99.233 E2.58441
G1 X59.811 Y99.508 E2.67463
G1 X60.54 Y99.856 E2.7649
G1 X60.62 Y99.904 E2.77533
G1 X61.268 Y99.644 E2.85336
G1 X62.044 Y99.419 E2.94365
G1 X62.838 Y99.271 E3.03391
G1 X63.929 Y99.198 E3.15611
G1 X64.618 Y99.198 E3.23311
G1 X66.171 Y98.276 E3.43494
G1 X66.885 Y97.899 E3.52517
G1 X67.633 Y97.594 E3.61545
G1 X68.407 Y97.364 E3.70568
G1 X69.201 Y97.212 E3.79603
G1 X70.336 Y97.133 E3.92317
G1 X74.064 Y97.133 E4.33979
G1 X74.871 Y97.173 E4.43009
G1 X75.67 Y97.293 E4.52038
G1 X76.453 Y97.49 E4.61061
G1 X77.212 Y97.765 E4.70083
G1 X77.941 Y98.113 E4.79111
G1 X78.866 Y98.696 E4.9133
G1 X80.315 Y99.751 E5.1136
G1 X81.22 Y96.971 E5.44033
G1 X81.508 Y96.217 E5.53053
G1 X81.869 Y95.494 E5.62084
G1 X82.3 Y94.811 E5.71109
G1 X82.796 Y94.173 E5.8014
G1 X83.352 Y93.588 E5.8916
G1 X84.176 Y92.901 E6.01149
G1 X86.949 Y90.882 E6.39482
G1 X87.625 Y90.44 E6.48508
G1 X88.341 Y90.066 E6.57536
G1 X89.09 Y89.765 E6.66557
G1 X89.866 Y89.54 E6.75586
G1 X90.66 Y89.392 E6.84612
G1 X91.752 Y89.319 E6.96843
G1 X95.178 Y89.319 E7.3513
G1 X95.985 Y89.359 E7.44159
G1 X96.784 Y89.479 E7.53189
G1 X97.567 Y89.676 E7.62212
G1 X98.326 Y89.951 E7.71233
G1 X99.055 Y90.299 E7.80261
G1 X99.981 Y90.882 E7.9249
G1 X102.754 Y92.901 E8.30823
G1 X103.383 Y93.408 E8.39851
G1 X103.958 Y93.975 E8.48876
G1 X104.25 Y94.326 E8.53978
G1 X104.37 Y94.231 E8.55689
G1 X106.69 Y92.543 E8.87752
G1 X107.366 Y92.1 E8.96784
G1 X108.082 Y91.727 E9.05807
G1 X108.832 Y91.426 E9.14838
G1 X109.608 Y91.201 E9.23867
G1 X110.402 Y91.054 E9.32891
G1 X111.491 Y90.981 E9.45089
G1 X119.532 Y90.981 E10.3495
G1 X120.339 Y91.021 E10.4398
G1 X121.138 Y91.141 E10.53009
G1 X121.921 Y91.338 E10.62032
G1 X122.68 Y91.613 E10.71054
G1 X123.409 Y91.961 E10.80081
G1 X124.1 Y92.379 E10.89106
G1 X124.434 Y92.618 E10.93696
G1 X127.682 Y95.059 E11.39102
G1 X128.303 Y95.575 E11.48125
G1 X128.87 Y96.151 E11.57157
G1 X129.377 Y96.78 E11.66186
G1 X129.82 Y97.455 E11.75209
G1 X130.193 Y98.172 E11.84241
G1 X130.54 Y99.059 E11.94885
G1 X130.871 Y100.076 E12.06837
G1 X133.764 Y100.076 E12.39168
G1 X134.571 Y100.116 E12.48197
G1 X135.37 Y100.236 E12.57227
G1 X136.153 Y100.433 E12.6625
G1 X136.912 Y100.708 E12.75271
G1 X137.641 Y101.056 E12.84299
G1 X138.332 Y101.474 E12.93324
G1 X138.978 Y101.959 E13.02352
G1 X139.534 Y102.466 E13.10761
G1 X139.768 Y102.7 E13.14459
G1 X140.31 Y103.299 E13.23486
G1 X140.762 Y103.911 E13.31989
G1 X141.088 Y104.066 E13.36023
G1 X142.013 Y104.648 E13.48236
G1 X142.52 Y105.017 E13.55244
G1 X143.149 Y105.524 E13.64272
G1 X143.724 Y106.091 E13.73297
G1 X144.241 Y106.712 E13.82327
G1 X144.694 Y107.381 E13.91356
G1 X145.078 Y108.091 E14.00377
G1 X145.48 Y109.097 E14.12484
G1 X145.673 Y109.692 E14.19474
G1 X145.884 Y110.472 E14.28504
G1 X146.016 Y111.262 E14.37455
G1 X146.775 Y111.177 E14.4599
G1 X151.077 Y110.985 E14.94115
G1 X151.885 Y110.989 E15.03145
G1 X152.688 Y111.073 E15.12167
G1 X153.148 Y111.158 E15.17395
G1 X155.692 Y111.702 E15.46468
G1 X157.643 Y110.725 E15.70852
G1 X158.382 Y110.399 E15.79879
G1 X159.15 Y110.148 E15.88908
G1 X159.938 Y109.974 E15.97927
G1 X160.492 Y109.9 E16.04173
G1 X163.223 Y109.629 E16.34843
G1 X164.03 Y109.589 E16.43872
G1 X164.565 Y109.607 E16.49855
G1 X168.926 Y109.894 E16.98696
G1 X169.728 Y109.986 E17.07717
G1 X170.517 Y110.158 E17.16742
G1 X171.286 Y110.407 E17.25775
G1 X171.87 Y110.655 E17.32866
G1 X172.522 Y110.963 E17.40924
G1 X173.991 Y110.624 E17.57772
G1 X175.171 Y110.441 E17.71117
G1 X179.242 Y110.114 E18.16758
G1 X180.372 Y110.102 E18.29387
G1 X184.3 Y110.332 E18.7336
G1 X186.663 Y110.411 E18.99782
G1 X188.04 Y110.218 E19.15321
G1 X188.845 Y110.146 E19.24353
G1 X189.652 Y110.153 E19.33372
G1 X190.455 Y110.24 E19.42398
G1 X191.246 Y110.406 E19.5143
G1 X192.016 Y110.65 E19.60457
G1 X192.244 Y110.748 E19.63231
G1 X192.596 Y110.592 E19.67533
G1 X193.363 Y110.339 E19.76559
G1 X194.151 Y110.164 E19.8558
G1 X194.953 Y110.068 E19.94607
G1 X195.617 Y110.049 E20.0203
G1 X200.014 Y110.099 E20.51171
G1 X200.283 Y110.106 E20.54179
G1 X204.359 Y110.287 E20.99775
G1 X205.277 Y110.38 E21.10086
G1 X209.722 Y111.086 E21.60383
G1 X210.512 Y111.252 E21.69405
G1 X210.818 Y111.348 E21.72989
G1 X211.612 Y111.197 E21.82021
G1 X212.727 Y111.12 E21.94511
G1 X216.771 Y111.117 E22.39705
G1 X217.578 Y111.156 E22.48734
G1 X218.377 Y111.275 E22.57761
G1 X218.865 Y111.398 E22.63386
G1 X219.636 Y111.201 E22.72279
G1 X220.435 Y111.079 E22.81311
G1 X221.241 Y111.036 E22.90331
G1 X222.048 Y111.073 E22.99359
G1 X222.847 Y111.19 E23.08384
G1 X223.388 Y111.316 E23.14592
G1 X225.554 Y111.899 E23.39659
G1 X226.322 Y112.148 E23.48682
G1 X227.063 Y112.471 E23.57715
G1 X227.768 Y112.865 E23.66741
G1 X228.43 Y113.328 E23.75769
G1 X229.043 Y113.853 E23.84788
G1 X229.601 Y114.437 E23.93815
G1 X230.099 Y115.073 E24.02842
G1 X230.532 Y115.755 E24.1187
G1 X230.895 Y116.477 E24.20901
G1 X231.185 Y117.231 E24.29929
G1 X231.399 Y118.009 E24.38946
G1 X231.535 Y118.806 E24.47982
G1 X231.593 Y119.779 E24.58875
G1 X231.593 Y121.427 E24.77292
G1 X231.553 Y122.234 E24.86322
G1 X231.433 Y123.033 E24.95351
G1 X231.236 Y123.816 E25.04374
G1 X230.961 Y124.575 E25.13396
G1 X230.613 Y125.304 E25.22423
G1 X230.195 Y125.995 E25.31448
G1 X229.71 Y126.641 E25.40476
G1 X229.164 Y127.236 E25.49501
G1 X228.561 Y127.774 E25.58532
G1 X227.65 Y128.413 E25.70967
G1 X224.11 Y130.55 E26.17178
G1 X223.399 Y130.932 E26.26198
G1 X222.653 Y131.243 E26.3523
G1 X221.88 Y131.478 E26.44259
G1 X220.842 Y131.669 E26.56054
G1 X217.503 Y132.06 E26.93623
G1 X216.697 Y132.114 E27.02651
G1 X215.89 Y132.088 E27.11674
G1 X215.089 Y131.982 E27.20704
G1 X214.303 Y131.798 E27.29725
G1 X213.538 Y131.537 E27.38758
G1 X212.803 Y131.202 E27.47785
G1 X212.404 Y130.981 E27.52882
G1 X212.302 Y130.921 E27.54205
G1 X212.045 Y131.013 E27.57255
G1 X211.272 Y131.247 E27.66281
G1 X210.48 Y131.403 E27.75302
G1 X209.676 Y131.48 E27.84328
G1 X208.682 Y131.466 E27.95438
G1 X205.098 Y131.194 E28.35605
G1 X204.297 Y131.093 E28.44628
G1 X203.51 Y130.913 E28.5365
G1 X202.744 Y130.656 E28.62679
G1 X202.007 Y130.325 E28.71708
G1 X201.435 Y129.996 E28.79082
G1 X201.126 Y130.254 E28.83581
G1 X200.458 Y130.707 E28.92601
G1 X199.748 Y131.093 E29.01632
G1 X199.004 Y131.406 E29.10652
G1 X198.232 Y131.644 E29.19681
G1 X197.441 Y131.805 E29.28702
G1 X196.637 Y131.887 E29.37733
G1 X195.829 Y131.889 E29.46763
G1 X194.651 Y131.747 E29.60023
G1 X193.202 Y131.464 E29.76522
G1 X193.02 Y131.529 E29.78682
G1 X192.247 Y131.762 E29.87704
G1 X191.454 Y131.917 E29.96734
G1 X190.65 Y131.994 E30.0576
G1 X189.821 Y131.989 E30.15025
G1 X185.274 Y131.731 E30.65921
G1 X183.33 Y131.682 E30.87653
G1 X180.676 Y131.919 E31.1743
G1 X179.869 Y131.951 E31.26456
G1 X179.062 Y131.903 E31.35491
G1 X178.265 Y131.775 E31.44512
G1 X177.484 Y131.569 E31.53538
G1 X176.727 Y131.287 E31.62566
G1 X176.002 Y130.932 E31.71587
G1 X175.315 Y130.507 E31.80615
G1 X174.861 Y130.159 E31.87008
G1 X173.301 Y130.506 E32.04867
G1 X170.511 Y131.38 E32.37541
G1 X169.729 Y131.583 E32.4657
G1 X168.931 Y131.708 E32.55596
G1 X168.125 Y131.753 E32.64618
G1 X167.318 Y131.718 E32.73645
G1 X166.824 Y131.657 E32.79207
G1 X163.904 Y131.205 E33.12228
G1 X163.113 Y131.042 E33.21254
G1 X162.437 Y130.832 E33.29164
G1 X161.285 Y131.207 E33.42703
G1 X160.506 Y131.419 E33.51726
G1 X159.709 Y131.553 E33.60757
G1 X158.904 Y131.608 E33.69775
G1 X158.096 Y131.582 E33.78809
G1 X157.295 Y131.477 E33.87837
G1 X156.742 Y131.348 E33.94183
G1 X155.132 Y131.741 E34.12704
G1 X154.584 Y131.855 E34.18959
G1 X150.407 Y132.576 E34.66329
G1 X149.605 Y132.674 E34.75358
G1 X148.798 Y132.692 E34.84379
G1 X147.992 Y132.63 E34.93413
G1 X147.197 Y132.489 E35.02436
G1 X146.38 Y132.257 E35.11927
G1 X144.682 Y131.677 E35.3198
G1 X143.52 Y132.216 E35.46295
G1 X142.771 Y132.519 E35.55324
G1 X142.265 Y132.677 E35.61248
G1 X140.862 Y133.066 E35.77519
G1 X140.074 Y133.243 E35.86544
G1 X139.272 Y133.342 E35.95575
G1 X138.465 Y133.36 E36.04596
G1 X137.66 Y133.299 E36.13618
G1 X136.872 Y133.159 E36.22562
G1 X136.019 Y134.334 E36.38788
G1 X135.513 Y134.963 E36.4781
G1 X134.947 Y135.539 E36.56834
G1 X134.326 Y136.056 E36.65865
G1 X133.658 Y136.509 E36.74884
G1 X132.948 Y136.895 E36.83916
G1 X132.203 Y137.208 E36.92946
G1 X131.431 Y137.445 E37.01971
G1 X130.64 Y137.606 E37.10992
G1 X129.836 Y137.687 E37.20023
G1 X129.028 Y137.689 E37.29052
G1 X128.224 Y137.61 E37.38081
G1 X127.432 Y137.453 E37.47104
G1 X126.889 Y137.296 E37.53421
G1 X124.79 Y136.612 E37.78092
G1 X124.035 Y136.324 E37.87122
G1 X123.313 Y135.963 E37.96143
G1 X122.629 Y135.533 E38.05172
G1 X121.992 Y135.036 E38.14201
G1 X121.407 Y134.479 E38.23229
G1 X120.88 Y133.868 E38.32246
G1 X120.416 Y133.206 E38.4128
G1 X120.019 Y132.503 E38.50303
G1 X119.715 Y131.811 E38.58749
G1 X78.12 Y131.811 E43.2359
G1 X77.843 Y132.25 E43.29391
G1 X77.347 Y132.887 E43.38414
G1 X76.79 Y133.472 E43.47441
G1 X75.964 Y134.161 E43.59461
G1 X75.443 Y134.54 E43.66661
G1 X74.767 Y134.982 E43.75687
G1 X74.051 Y135.355 E43.8471
G1 X73.301 Y135.656 E43.93741
G1 X72.526 Y135.881 E44.02759
G1 X71.731 Y136.028 E44.11795
G1 X70.643 Y136.101 E44.23981
G1 X70.001 Y136.101 E44.31155
G1 X69.194 Y136.061 E44.40185
G1 X68.934 Y136.022 E44.43123
G1 X68.901 Y136.028 E44.43498
G1 X67.813 Y136.101 E44.55684
G1 X67.171 Y136.101 E44.62859
G1 X66.364 Y136.061 E44.71888
G1 X65.565 Y135.941 E44.80918
G1 X64.782 Y135.744 E44.89941
G1 X64.023 Y135.469 E44.98962
G1 X63.294 Y135.121 E45.0799
G1 X62.371 Y134.54 E45.20178
G1 X61.85 Y134.161 E45.27378
G1 X61.221 Y133.654 E45.36407
G1 X60.645 Y133.087 E45.45439
G1 X60.128 Y132.467 E45.54461
G1 X59.684 Y131.811 E45.63313
G1 X49.131 Y131.811 E46.81247
G1 X49.052 Y132.055 E46.84113
G1 X48.765 Y132.81 E46.9314
G1 X48.404 Y133.533 E47.02171
G1 X47.974 Y134.216 E47.1119
G1 X47.478 Y134.854 E47.20221
G1 X46.921 Y135.439 E47.29249
G1 X46.091 Y136.131 E47.41325
G1 X44.914 Y136.987 E47.57589
G1 X44.239 Y137.429 E47.66606
G1 X43.522 Y137.803 E47.75643
G1 X42.772 Y138.103 E47.84671
G1 X41.997 Y138.328 E47.93689
G1 X41.203 Y138.475 E48.02713
G1 X40.115 Y138.548 E48.14899
G1 X38.663 Y138.548 E48.31126
G1 X37.856 Y138.508 E48.40156
G1 X37.057 Y138.388 E48.49185
G1 X36.274 Y138.191 E48.58208
G1 X35.515 Y137.916 E48.6723
G1 X34.786 Y137.568 E48.76257
G1 X33.864 Y136.987 E48.88436
G1 X32.902 Y136.287 E49.01732
G1 X31.94 Y136.987 E49.15027
G1 X31.265 Y137.429 E49.24044
G1 X30.548 Y137.803 E49.33081
G1 X29.798 Y138.103 E49.42109
G1 X29.023 Y138.328 E49.51127
G1 X28.229 Y138.475 E49.60151
G1 X27.141 Y138.548 E49.72337
G1 X25.689 Y138.548 E49.88564
G1 X24.882 Y138.508 E49.97594
G1 X24.083 Y138.388 E50.06623
G1 X23.3 Y138.191 E50.15646
G1 X22.541 Y137.916 E50.24668
G1 X21.812 Y137.568 E50.33695
G1 X20.89 Y136.987 E50.45874
G1 X19.713 Y136.131 E50.62138
G1 X19.084 Y135.624 E50.71167
G1 X18.508 Y135.058 E50.80192
G1 X17.991 Y134.437 E50.89222
G1 X17.538 Y133.769 E50.98242
G1 X17.153 Y133.058 E51.07277
G1 X16.752 Y132.055 E51.19349
G1 X16.303 Y130.674 E51.35577
G1 X16.091 Y129.894 E51.44611
G1 X15.958 Y129.098 E51.53629
G1 X15.955 Y129.049 E51.54178
G1 X15.538 Y128.588 E51.61125
G1 X15.289 Y128.252 E51.65799
G1 X14.992 Y128.144 E51.6933
G1 X14.263 Y127.796 E51.78358
G1 X13.339 Y127.214 E51.90562
G1 X12.26 Y126.429 E52.05473
G1 X11.632 Y125.923 E52.14486
G1 X11.056 Y125.356 E52.23519
G1 X10.539 Y124.735 E52.32549
G1 X10.086 Y124.066 E52.41578
G1 X9.702 Y123.356 E52.50599
G1 X9.302 Y122.356 E52.62635
G1 X8.89 Y121.09 E52.77513
G1 X8.678 Y120.311 E52.86536
G1 X8.544 Y119.514 E52.95567
G1 X8.49 Y118.708 E53.04595
G1 X8.516 Y117.901 E53.13618
G1 X8.622 Y117.1 E53.22648
G1 X8.89 Y116.04 E53.34866
G1 X9.302 Y114.774 E53.49745
G1 X9.589 Y114.019 E53.58771
G1 X9.95 Y113.296 E53.67802
G1 X10.381 Y112.613 E53.76828
G1 X10.877 Y111.976 E53.8585
G1 X11.433 Y111.39 E53.94877
G1 X12.26 Y110.701 E54.06907
G1 X13.339 Y109.916 E54.21818
G1 X14.015 Y109.473 E54.30851
G1 X14.732 Y109.1 E54.39883
G1 X15.481 Y108.799 E54.48904
G1 X16.257 Y108.574 E54.57933
G1 X17.051 Y108.427 E54.66957
G1 X18.14 Y108.354 E54.79155
G1 X19.472 Y108.354 E54.9404
G1 X20.279 Y108.394 E55.0307
G1 X21.078 Y108.514 E55.12099
G1 X21.861 Y108.711 E55.21122
G1 X22.62 Y108.986 E55.30144
G1 X23.349 Y109.334 E55.39171
G1 X24.273 Y109.916 E55.51375
G1 X25.352 Y110.701 E55.66287
G1 X25.98 Y111.207 E55.753
G1 X26.556 Y111.774 E55.84332
G1 X27.073 Y112.395 E55.93362
G1 X27.526 Y113.064 E56.02392
G1 X27.757 Y113.492 E56.07827
G1 X30.742 Y113.492 E56.41185
G1 X30.742 Y107.27 E57.10719
G1 X30.782 Y106.463 E57.19748
G1 X30.902 Y105.664 E57.28778
G1 X31.099 Y104.881 E57.37801
G1 X31.374 Y104.122 E57.46822
G1 X31.722 Y103.393 E57.5585
G1 X32.14 Y102.702 E57.64875
G1 X32.625 Y102.056 E57.73903
G1 X33.132 Y101.5 E57.82312
G1 X33.366 Y101.266 E57.8601
G1 X33.965 Y100.724 E57.95037
G1 X34.614 Y100.244 E58.04058
G1 X35.308 Y99.83 E58.13089
G1 X36.039 Y99.487 E58.22113
G0 F6000 X36.575 Y100.307
G1 F900 X37.297 Y100.075 E58.30588
G1 X38.04 Y99.92 E58.3907
G1 X39.136 Y99.836 E58.51354
G1 X56.663 Y99.836 E60.47226
G1 X57.421 Y99.876 E60.55708
G1 X58.17 Y99.995 E60.64184
G1 X58.902 Y100.193 E60.72658
G1 X59.61 Y100.467 E60.81142
G1 X60.285 Y100.813 E60.89619
G1 X60.57 Y101 E60.93428
G1 X61.004 Y100.779 E60.98871
G1 X61.713 Y100.508 E61.07353
G1 X62.446 Y100.312 E61.15833
G1 X63.195 Y100.195 E61.24305
G1 X63.929 Y100.158 E61.32518
G1 X64.882 Y100.158 E61.43168
G1 X66.661 Y99.102 E61.66288
G1 X67.333 Y98.749 E61.74771
G1 X68.038 Y98.47 E61.83244
G1 X68.769 Y98.266 E61.91725
G1 X69.517 Y98.14 E62.00202
G1 X70.336 Y98.093 E62.0937
G1 X74.064 Y98.093 E62.51032
G1 X74.822 Y98.133 E62.59515
G1 X75.571 Y98.252 E62.6799
G1 X76.303 Y98.45 E62.76464
G1 X77.011 Y98.724 E62.84948
G1 X77.686 Y99.07 E62.93425
G1 X78.301 Y99.472 E63.01636
G1 X80.496 Y101.07 E63.31978
G1 X80.935 Y101.036 E63.36899
G1 X81.073 Y100.524 E63.42825
G1 X82.133 Y97.269 E63.81081
G1 X82.405 Y96.561 E63.89557
G1 X82.751 Y95.885 E63.98044
G1 X83.166 Y95.25 E64.06521
G1 X83.645 Y94.662 E64.14997
G1 X84.184 Y94.127 E64.23484
G1 X84.741 Y93.677 E64.31486
G1 X87.514 Y91.658 E64.69819
G1 X88.15 Y91.245 E64.78294
G1 X88.826 Y90.9 E64.86775
G1 X89.535 Y90.629 E64.95258
G1 X90.268 Y90.434 E65.03734
G1 X91.017 Y90.317 E65.12206
G1 X91.752 Y90.279 E65.20431
G1 X95.178 Y90.279 E65.58718
G1 X95.936 Y90.319 E65.67201
G1 X96.685 Y90.438 E65.75676
G1 X97.417 Y90.636 E65.84151
G1 X98.125 Y90.91 E65.92635
G1 X98.8 Y91.256 E66.01111
G1 X99.416 Y91.658 E66.09332
G1 X102.189 Y93.677 E66.47665
G1 X102.778 Y94.156 E66.56149
G1 X103.313 Y94.693 E66.6462
G1 X103.789 Y95.284 E66.73101
G1 X104.082 Y95.738 E66.79139
G1 X104.62 Y95.25 E66.87256
G1 X104.935 Y95.007 E66.91702
G1 X107.255 Y93.319 E67.23766
G1 X107.891 Y92.906 E67.3224
G1 X108.567 Y92.561 E67.40722
G1 X109.276 Y92.29 E67.49204
G1 X110.009 Y92.095 E67.57681
G1 X110.759 Y91.978 E67.66164
G1 X111.491 Y91.941 E67.74355
G1 X119.532 Y91.941 E68.64216
G1 X120.29 Y91.981 E68.72699
G1 X121.039 Y92.1 E68.81174
G1 X121.771 Y92.298 E68.89649
G1 X122.479 Y92.572 E68.98133
G1 X123.154 Y92.918 E69.06609
